!!!OTL: Shiliu hua kai yezi duo
!!!ARE: Asia, China,ÿYunnan, Nanhua
!! II, 91
!!!SCT: C1499
!!!YEM: Copyright 1995, estate of Helmut Schaffrath.
**kern
*ICvox
*Ivox
!! Mixed meters:  2/4; 3/4
*M3/4
*k[f#c#]
*D:
{16b
8.b
8ee
16ff#
16ee
=1
8dd
8ee
16ff#
16ee
16dd
[16b
=2
2b]}
=3
{8dd
8ee
8dd
8b
=4
8dd
16b
16a
16a
16f#
16e
16d
=5
2B}
=6
{8ee
16ff#
16dd
8ee
8ff#
=7
8ff#
16ff#
16dd
8ee
8ff#
8ee
8ff#
=8
*M2/4
8b
8ff#
16ee
8.ee
=9
8b
8ff#
16ee
8.ee}
=10
{8b
8dd
16b
16g
8a
=11
16b
16b
16a
16f#
16f#
16e
16e
16d
=12
*M3/4
2.B}
=13
{16g
8.g
8g
8b
8g
8b
=14
*M2/4
8dd
8g
16g
8.g
=15
8dd
8g
16g
8.g
=16
8a
8f#
16f#
16e
16e
16d
=17
2B
4r}
==
!!!AGN: Shange
!!!AMT: irregular
!!!AIN: vox
!!!EED: Helmut Schaffrath
!!!EEV: 1.0
*-
!!!ONB: Tied note syntax fixed by Craig Sapp, 2004/05/03/
